client/resources/iconsets/breeze/src/svg/16x16/icon_folder_default_junk.svg

<svg xmlns="http://www.w3.org/2000/svg" width="16" height="16" viewBox="0 0 16 16">
 <path style="fill:#6d6d70"
       d="M 5.21875 1 L 4.90625 1.28125 L 1.28125 4.90625 L 1 5.21875 L 1 10.78125 L 1.28125 11.09375 L 4.90625 14.71875 L 5.21875 15 L 10.78125 15 L 11.09375 14.71875 L 14.71875 11.09375 L 15 10.78125 L 15 5.21875 L 14.71875 4.90625 L 11.09375 1.28125 L 10.78125 1 L 5.21875 1 z M 7 4 L 9 4 L 9 7 L 8.75 9 L 7.28125 9 L 7 7 L 7 4 z M 8 9.75 C 8.69036 9.75 9.25 10.30964 9.25 11 C 9.25 11.69036 8.69036 12.25 8 12.25 C 7.30964 12.25 6.75 11.69036 6.75 11 C 6.75 10.30964 7.30964 9.75 8 9.75 z "
       />
</svg>

<svg xmlns="http://www.w3.org/2000/svg" width="16" height="16"><path d="M5.219 1l-.312.281-3.625 3.625L1 5.219v5.563l.281.313 3.625 3.625.313.281h5.563l.313-.281 3.625-3.625.281-.312V5.219l-.281-.312-3.625-3.625L10.781 1H5.219zM7 4h2v3l-.25 2H7.281L7 7V4zm1 5.75a1.25 1.25 0 1 1 0 2.5 1.25 1.25 0 1 1 0-2.5z" fill="#6d6d70"/></svg>
